X:18877
T:Within a mile of Dublin
M:4/4
L:1/8
K:D
BG|ADDE F3G|ADDB =cABG|ADDE F3G|AB=cAG:|!
FG|Addc AGFG|Adde fdec|Addc AGFG|AB=cA G2FG|!
Addc AGFG|Adde f3 g|af (3gfe fdec|dcAF G2|!


